svgs/supreader.svg

<svg xmlns="http://www.w3.org/2000/svg" viewBox="0 0 192 192"><path d="M16 101.487V26.974h12.571v135.021l16.858.977c9.271.538 19.428 1.668 22.571 2.511 6.898 1.851 18.857 7.8 18.857 9.38 0 .626-15.943 1.137-35.428 1.137H16Zm90.725 72.27c5.235-5.221 18.315-8.832 37.846-10.449L164 161.7V27.727l6-.455 6-.455V176l-35.714-.048c-31.177-.042-35.441-.321-33.561-2.195Zm-21.833-6.093c-10.557-6.498-23.606-9.728-39.304-9.728H33.143V16.437h11.394c16.389 0 34.721 3.859 41.749 8.788L92 29.232l.571 71.879.572 71.755c0-.068-3.713-2.409-8.251-5.202Zm14.537-65.63V30.709L102 28.557c9.581-8.021 24.77-12.095 45.143-12.111l11.714-.009v141.499l-12.286.001c-6.757 0-16.175.98-20.928 2.178-7.944 2.002-21.359 8.399-24.786 11.818-1.138 1.135-1.428-13.083-1.428-69.899Z"/></svg>

<svg
    xmlns="http://www.w3.org/2000/svg"
    viewBox="0 0 192 192"
    id="vector">
    <g id="group">
        <path
            id="path_2"
            d="M 16 101.487 L 16 26.974 L 28.571 26.974 L 28.571 161.995 L 45.429 162.972 C 54.7 163.51 64.857 164.64 68 165.483 C 74.898 167.334 86.857 173.283 86.857 174.863 C 86.857 175.489 70.914 176 51.429 176 L 16 176 Z M 106.725 173.757 C 111.96 168.536 125.04 164.925 144.571 163.308 L 164 161.7 L 164 27.727 L 170 27.272 L 176 26.817 L 176 176 L 140.286 175.952 C 109.109 175.91 104.845 175.631 106.725 173.757 Z M 84.892 167.664 C 74.335 161.166 61.286 157.936 45.588 157.936 L 33.143 157.936 L 33.143 16.437 L 44.537 16.437 C 60.926 16.437 79.258 20.296 86.286 25.225 L 92 29.232 L 92.571 101.111 C 92.886 140.645 93.143 172.935 93.143 172.866 C 93.143 172.798 89.43 170.457 84.892 167.664 Z M 99.429 102.034 L 99.429 30.709 L 102 28.557 C 111.581 20.536 126.77 16.462 147.143 16.446 L 158.857 16.437 L 158.857 157.936 L 146.571 157.937 C 139.814 157.937 130.396 158.917 125.643 160.115 C 117.699 162.117 104.284 168.514 100.857 171.933 C 99.719 173.068 99.429 158.85 99.429 102.034 Z"
            fill="#000000"
            stroke-width="12"/>
    </g>
</svg>
